icons/svg/osmc_other/osmc_tower.svg

<?xml version="1.0" encoding="UTF-8" standalone="no"?>
<!-- Generator: Adobe Illustrator 16.0.4, SVG Export Plug-In . SVG Version: 6.00 Build 0)  -->

<svg
   xmlns:dc="http://purl.org/dc/elements/1.1/"
   xmlns:cc="http://creativecommons.org/ns#"
   xmlns:rdf="http://www.w3.org/1999/02/22-rdf-syntax-ns#"
   xmlns:svg="http://www.w3.org/2000/svg"
   xmlns="http://www.w3.org/2000/svg"
   xmlns:sodipodi="http://sodipodi.sourceforge.net/DTD/sodipodi-0.dtd"
   xmlns:inkscape="http://www.inkscape.org/namespaces/inkscape"
   version="1.1"
   id="Слой_1"
   x="0px"
   y="0px"
   width="16"
   height="16"
   viewBox="0 0 16 16"
   xml:space="preserve"
   inkscape:version="0.48.4 r9939"
   sodipodi:docname="osmc_heart.svg"
   style="enable-background:new"><metadata
     id="metadata11"><rdf:RDF><cc:Work
         rdf:about=""><dc:format>image/svg+xml</dc:format><dc:type
           rdf:resource="http://purl.org/dc/dcmitype/StillImage" /><dc:title></dc:title></cc:Work></rdf:RDF></metadata><defs
     id="defs9" /><sodipodi:namedview
     pagecolor="#ffffff"
     bordercolor="#666666"
     borderopacity="1"
     objecttolerance="10"
     gridtolerance="10"
     guidetolerance="10"
     inkscape:pageopacity="0"
     inkscape:pageshadow="2"
     inkscape:window-width="1332"
     inkscape:window-height="739"
     id="namedview7"
     showgrid="false"
     inkscape:zoom="16"
     inkscape:cx="0.34708502"
     inkscape:cy="6.2542429"
     inkscape:window-x="34"
     inkscape:window-y="1024"
     inkscape:window-maximized="1"
     inkscape:current-layer="Слой_1"
     inkscape:snap-bbox="true"
     inkscape:object-nodes="true"
     inkscape:snap-smooth-nodes="true"
     inkscape:bbox-paths="true"
     inkscape:bbox-nodes="true"
     inkscape:snap-bbox-edge-midpoints="true"
     inkscape:snap-bbox-midpoints="true" /><path
     style="font-size:20.57779694px;font-style:normal;font-weight:normal;fill:#000000;fill-opacity:1;stroke:none;font-family:Bitstream Vera Sans"
     d="m 3.7560724,6.3160835 0.010642,-3.3848005 0.9659241,0 0,1.806894 1.3864046,0 0,-1.806894 0.9659197,0 0,1.806894 1.3864048,0 0,-1.806894 1.1543977,0 0,1.8169951 1.3769227,-0.00869 0.0088,-1.8108051 1.232562,0.0026 0,3.3783549 -1.27828,0 0.0035,6.7614421 -2.1500767,0 -0.00173,-3.6046906 c 0,0 -0.1047861,-1.2417365 -0.7114303,-1.2572025 C 7.5034238,8.193967 7.3770205,9.4630873 7.3770205,9.4630873 l -0.00948,3.6081297 -2.2745806,0 0,-6.7614422 -1.3370097,0.00869 z"
     id="path2958"
     sodipodi:nodetypes="ccccccccccccccccccccscccccc"
     inkscape:connector-curvature="0" /></svg>

<svg width="16" height="16" viewBox="0 0 16 16" fill="none" xmlns="http://www.w3.org/2000/svg">
<path d="M3.75607 6.31607L3.76672 2.93127H4.73264V4.73817H6.11904V2.93127H7.08496V4.73817H8.47137V2.93127H9.62577V4.74827L11.0027 4.73958L11.0115 2.92877L12.2441 2.93137V6.30973H10.9658L10.9693 13.0712H8.81919L8.81746 9.46648C8.81746 9.46648 8.71268 8.22474 8.10603 8.20928C7.50343 8.19396 7.37702 9.46308 7.37702 9.46308L7.36754 13.0712H5.09296V6.30976L3.75595 6.31845L3.75607 6.31607Z" fill="black"/>
</svg>
